X:188
T:The False Proof
C:Jowan Merckx
S:rubai (flook)
R:jig
M:6/8
L:1/8
K:Bmin
|: Bdf fef | fed c2f | edc B2B | ABd cAF |
GBd f2a | fed c2f | edc B2A | BcA B3 ::
zdc BcA | GFE F2E- | EDE G2E- |EFG dcA |
Bdc BcA | GFE F2E- | EFG e2d | cBA B3 ::
BdB fBg | Bag fed | e2d c2f | ede edB |
BAB fBg | Baf bz2 | bag fag |1 fed ecA :|2 fed e2d |]
